!! 00000] TT[WS
!!!OTL: Fang fengzheng
!!!ARE: Asia, China,ÿShanxi Jingnan
!! Ethnic Group: Han
!! WI, 217
!!!SCT: J0258
!!!YEM: Copyright 1995, estate of Helmut Schaffrath.
**kern
*ICvox
*Ivox
*M2/4
*k[f#]
*G:
{4dd
8gg
8ee
=1
4dd
8b
8a
=2
4dd
8gg
8ee
=3
8dd
8gg
8b
8a}
=4
{4.g
8e
=5
8dd
8ee
8dd
8dd
=6
8e
8g
8b
8a
=7
2g}
=8
{8b
8g
4a
=9
8a
8dd
16b
16dd
16b
16a
=10
8dd
8g
4a}
=11
{8a
8dd
8b
8dd
=12
8gg
8b
16a
16b
16a
16g
=13
8g
8e
8d
8d}
=14
{8dd
8dd
8dd
8g
=15
8a
8b
8a
8e
=16
2d}
==
!!!AGN: Xiaodiao. Qingge, Sichun
!!!ONB: ESAC (Essen Associative Code) Database: CHINA
!!!AMT: simple duple
!!!AIN: vox
!!!EED: Helmut Schaffrath
!!!EEV: 1.0
*-
